X:1
T:Lay a Garland on my Hearse
T:Lay a Garland on my Hearse
T:Copyright © CPDL 
T:Copyright © CPDL 
T:Copyright © CPDL 
Z:Copyright © CPDL
%%score 1 { ( 2 3 ) ( 4 5 ) }
L:1/8
Q:1/4=65
M:4/4
K:Gmin
V:1 treble nm="P1"
V:2 treble nm="P2" snm=" "
V:3 treble 
V:4 bass nm=" " snm=" "
V:5 bass 
V:1
"^Editor: John Henry Fowler""^(  Revision:   3 - 22 - 2008  )""^Lento Expressivo""^No. 4  from \"English Lyrics\" Set No. 5   (1902)""^Francis Beamont and John Fletcher   From the Maid's Tragedy - 1619" z8 | %1
w: |
 z4 z2!p! B>c |!<(! d"^Charles Hubert Hastings Parry"d!<)!!>(!ed!>)!"^( 1848 - 1918 )" G2 z A/B/ | %3
w: Lay a|gar- land on my hearse Of the|
!<(! (G/A/B-!<)! B/!>(!G/) (E/F/)!>)! G4 |!<(! (D E2) G!<)! D!>(!B B>!>)!A | %5
w: dis~~\-- * * * * \-~~mal _ yew,|Mai- * dens, wil- low branch- es|
"^cresc." D4!<(! GB e>!<)!e | d6 z2 | z!f! B D!<(! z/ d/!<)! =e4- | %8
w: bear, Say, I di- ed|true.|My love was false,|
 e4 z3/2!f!"^rit."!<(! c/ d!<)!c |!ff! f2 dB!>(! F3 E!>)! | D3 z z4 | z4 z2 z!p! G | %12
w: _ but I was|firm From the hour of|birth.|Up-|
!<(! dd!<)!e!>(!d d!>)!G z G |!<(! (G/A/B-!<)!!>(! B/G/E/F/!>)! G)D z2 ||[M:2/4]!pp! z D2 D | %15
w: \-~on my bur- ied bo- dy lie|Light~\-- * * * * * * * \-~~ly,|gen- tle,|
[M:4/4] D8 | z8 | z8 | z8 | z8 |] %20
w: earth~!|||||
V:2
 (D2 z G) (D E2 [A,EG]) | !tenuto![B,D]2 !tenuto![B,D]4 z ([GB] | %2
 [^FA]D) ([=F_A]2 [=EG]G,) [_EG-]2 | G>F E2 (D!<(! E2!<)! G) | %4
!<(! (D E2!<)! G) (D!<(! E2!<)! [A,EG]) | x4!<(! (D E2!<)! [A,EG]) | (D G2 B) (D G2 [DGB]) | %7
 [^Gd]2 z2 z (!>![A^c]2 !>![G=B]) | z (!>![^CA^c]2 !>![=B,^G=B]) z (!>![A=c]2 !>![=G_B]) | %9
 ([df]2 d)B z ([FA]2 E) | z ([B,D]2 [A,C]) z [F,B,D] z (!>![^F,A,D-] | D E2 G) [G,B,D]2 z [GB-] | %12
 [^FA]D ([=F_A]2 [=EG]).G, ([_EG]2 | [DF]).G, ([CE]2 [B,D]).G, z[K:bass] [G,C] ||[M:2/4] D4 | %15
[M:4/4][K:treble] (D E2 !>!G-) (G/A/F/G/ AD-) | (D E2 G-) (G/A/F/G/!<(! A)!<)!D | %17
 (de) (B>c) (de) (B>c) | ([DGd]2 [GBe]2 [B,FB]2) [CEG]2 | !fermata![B,Bd]8 |] %20
V:3
 [G,B,]4 [G,B,]3 z | x8 | x8 | DG, C2 [G,B,]4 | [G,B,]4 [G,B,]3 x | [B,D]4 [G,B,]3 x | B,4 B,3 z | %7
 D2 x2 x ^C !>!=F2 | x =E !>!=F2 x =C !>!E2 | F2 BD x G, A,2 | x F, _G,2 x4 | [G,B,]4 x4 | x8 | %13
 x7[K:bass] x ||[M:2/4] (A,3 C) |[M:4/4][K:treble] [G,B,]2 _B,2 C3 x | (B,2 _B,2) !>!C3 x | %17
 B2 G2 GB GF/E/ | x8 | x8 |] %20
V:4
!p!!<(! (G,,>F,, E,,>!<)!!p!F,,)!<(! (G,,>E,, C,,>!<)!E,,) | %1
!p!!<(! (G,,>D,, G,,,2)!<)! (G,,>D,, G,,,2) | z2 G,,,2 z2 G,,,2 | %3
 z2 G,,,2 (G,,>!p!!<(!F,, E,,>!<)!F,,) |!p! (G,,>!<(!F,, E,,>F,,)!<)!!<(! (G,,>E,,!<)! C,,2) | %5
"^cresc." (G,,>D,, G,,,2)!<(! (G,,>E,,!<)! C,,2) | %6
 (G,,>"^cresc."D,, G,,,>D,,) (G,,>D,, G,,,>!f![G,B,]) | %7
 !>![B,,D,B,]2 z2!f! ([A,,,A,,]2 !>![D,,D,]2) | %8
 ([A,,,A,,]2 !>![D,,D,]2)"^rit." ([A,,,A,,]2 [=C,,=C,]2) |!ff! z [F,D]3"^dim." [F,,F,]2 z2 | %10
!p! (B,,>_G,, E,,2)"^rit." (B,,>B,,, D,,2) | %11
!p! !tenuto!G,,>"^a  tempo".F,, !tenuto!E,,>.F,, !tenuto!G,,>.D,,!p! .G,,,2 | %12
!<(! (G,,>D,, G,,,2) (G,,>!<)!"^dim.  sempre"D,, G,,,2) | %13
!<(! (G,,>D,, G,,,2)!<)! (G,,>D,, G,,,)E, ||[M:2/4]!pp! (G,2 ^F,2) | %15
[M:4/4]!p! x2!<(! z2!<)! (A,>G, F,C) |"^dim.  sempre"!p! x2 z2 (A,>G, F,C) | %17
!<(! (B,G,)!<)! (ED/C/)!>(! B,G, E,D,/!>)!C,/ |"^dim." (B,,G,,) z (E,, D,,)B,,, z C,, | %19
 !fermata![G,,,D,,]8 |] %20
V:5
 x8 | x8 | x8 | x8 | x8 | x8 | x8 | x8 | x8 | [F,,,F,,]2 x2 x4 | x8 | x8 | x8 | x8 ||[M:2/4] D,4 | %15
[M:4/4] [G,,,D,,]2 x2 [G,,D,]2 z2 | [G,,,D,,]2 x2 [G,,D,]2 z2 | x8 | x8 | x8 |] %20

